X:2
T:I Hear A Rhapsody
C:George Frajos
L:1/4
M:C
I:linebreak $
K:Eb
"G7" z G =A =B S|:"Cm" d3/2 c/"Gb7" e2- |"Fm" e2"Bb7" d2 |$"Eb7" (3B E F"D7" B2 |
"Db7" z G"C7" (3G A B |"Fm" B3/2 A/"Abm" _c2- |$"Bm" c D"E7" D D ||1"Eb" F3/2 E/"Ab" E2- |
"D7" E G"G7" =A =B :|2$"Eb" F3/2 E/ E2- ||[K:Bb]"A7" E4 "D7" x4||"Gm" z D D D |"Eb7" E3 C "D7" x4|$
"Gm" E3/2 D/ D2- |"Cm" D4 "F7" x4|"Bb" z F F F ||[K:Eb]"Fm" A3 F |$"D7" c3/2 =B/ B2- |
"G7" B G =A "_D.S. al 3rd end." =B ||3[K:Eb]"Eb" F3/2 E/ E2 |]

